X:1
T:Title
L:1/8
Q:1/4=120
M:4/4
K:D
V:1 treble nm="Church Organ, Staff"
V:1
 A2 A2 A2 G2 | A2 A2- A/ z/ ^A =A2 | A2 G2 =F2 G2 | ^G2 A6 | A2 A2 A2 =F2 | G2 A2- A/ z/ ^A =A2 | %6
w: By~J.~Barnby * * *||||||
 d2 =c2 =F2 G2 | ^A2 =A6 | A d3 d c2 A- | A d3 d c2 A- | A d2 c- c/ z/ B2 c- | c A3- A2- A/ z/ A- | %12
w: ||||||
 A d3 d c2 A- | A d3 d c2 B- | B e2 d- d/ z/ B2 c- | c A3- A2- A/ z/ A- | A B2 e- e/ z/ A2 A- | %17
w: |||||
 A G3 A F2 F- | F G2 G- G/ z/ A2 A- | A B3- B2- B/ z/ d- | d c3 B A2 d- | d c3 B A2 B- | %22
w: |||||
 B G2 F- F/ z/ F2 E- | E A3- A2- A/ z/ d- | d c3 B A2 d- | d c2 B- B/ z/ A2 B- | B A2 G F E3 | %27
w: |||||
 E D3- D4- | D2 z2 z4 |] %29
w: ||

